public/2.svg

<svg width="138" height="110" viewBox="0 0 138 110" fill="none" xmlns="http://www.w3.org/2000/svg">
<g clip-path="url(#clip0_9_84333)">
<path d="M131.966 36.868C132.512 37.1179 132.98 37.5117 133.32 38.0077C133.661 38.5037 133.862 39.0833 133.901 39.6848C133.901 40.9625 132.976 42.3079 131.167 43.3563L63.2192 82.8048L12.9258 53.6066L80.8749 14.158C84.181 12.239 89.1835 12.03 92.0512 13.6927L131.966 36.868ZM114.763 41.1834C116.152 40.3761 116.303 39.1602 115.1 38.4621L86.6683 21.9562C86.0395 21.626 85.3368 21.464 84.6278 21.4858C83.7026 21.4769 82.7905 21.7058 81.978 22.1508C80.5938 22.9538 80.4431 24.174 81.6414 24.8729L110.073 41.3788C110.7 41.7085 111.401 41.8705 112.109 41.8493C113.035 41.8585 113.949 41.6302 114.763 41.1859V41.1834ZM105.074 46.8069C106.463 45.9997 106.614 44.7837 105.411 44.0848L76.9747 27.5738C76.3482 27.2463 75.6492 27.0844 74.9433 27.1034C74.0161 27.0962 73.1024 27.3268 72.2885 27.7735C70.9001 28.5765 70.7487 29.7966 71.952 30.4956L100.383 47.0015C101.01 47.3316 101.711 47.4937 102.419 47.472C103.346 47.4826 104.26 47.2531 105.074 46.8069ZM95.3909 52.4304C96.7794 51.6232 96.9308 50.3997 95.7276 49.7092L67.2961 33.1982C66.6689 32.8686 65.968 32.7065 65.2607 32.7277C64.3339 32.7188 63.4201 32.9477 62.6058 33.3928C61.2166 34.2 61.071 35.4236 62.2692 36.1192L90.7007 52.625C91.3279 52.9546 92.0287 53.1167 92.7361 53.0955C93.6626 53.1054 94.5763 52.8777 95.3909 52.4338V52.4304ZM62.7228 71.397L84.3897 58.8147L51.6028 39.7847L29.936 52.367L62.7228 71.397Z" fill="white"/>
<path d="M115.098 38.4636C116.302 39.1616 116.151 40.3776 114.761 41.1848C113.947 41.6299 113.033 41.8588 112.107 41.8499C111.399 41.8709 110.698 41.7089 110.071 41.3794L81.6398 24.8734C80.4398 24.1754 80.5913 22.9544 81.9764 22.1514C82.7889 21.7063 83.7009 21.4774 84.6261 21.4863C85.3351 21.4646 86.0379 21.6266 86.6667 21.9568L115.098 38.4636Z" fill="white"/>
<path d="M105.415 44.0884C106.615 44.7865 106.464 46.0024 105.079 46.8105C104.266 47.256 103.354 47.485 102.429 47.4756C101.721 47.4973 101.02 47.3352 100.393 47.0051L71.9619 30.4992C70.7569 29.8011 70.9083 28.5801 72.2984 27.7771C73.1123 27.3304 74.0261 27.0998 74.9533 27.107C75.6591 27.088 76.3582 27.2499 76.9846 27.5774L105.415 44.0884Z" fill="white"/>
<path d="M95.7267 49.7129C96.9317 50.4068 96.7802 51.6269 95.3901 52.435C94.5758 52.88 93.662 53.1089 92.7353 53.1001C92.0279 53.1212 91.327 52.9592 90.6998 52.6296L62.2685 36.1237C61.0685 35.4256 61.2149 34.2046 62.605 33.3974C63.4193 32.9523 64.333 32.7234 65.2598 32.7323C65.9672 32.7111 66.6682 32.8731 67.2954 33.2027L95.7267 49.7129Z" fill="#1B69FF"/>
<path d="M63.2154 82.8076L57.9428 85.8665C54.6367 87.7898 49.6342 87.9987 46.7715 86.3369L6.84752 63.1565C6.30189 62.9067 5.83376 62.5128 5.49298 62.0168C5.15219 61.5208 4.95144 60.9412 4.91211 60.3397C4.91211 59.0704 5.83772 57.7225 7.64687 56.6682L12.9186 53.6094L63.2154 82.8076Z" fill="#CEE7FD"/>
<path d="M51.6325 88.1779C49.8175 88.2251 48.0209 87.8019 46.4155 86.9492L6.49137 63.7697C5.83785 63.4578 5.28035 62.974 4.87788 62.3695C4.47541 61.765 4.24292 61.0624 4.20508 60.336C4.20508 58.7554 5.33097 57.1917 7.29411 56.0486L80.5149 13.5412C84.0701 11.4782 89.2905 11.2726 92.3997 13.075L132.319 36.2502C132.973 36.5619 133.53 37.0455 133.934 37.6497C134.337 38.254 134.57 38.9565 134.608 39.6831C134.608 41.2696 133.479 42.8325 131.516 43.9722L63.5695 83.4183L58.2978 86.4771C56.2572 87.6079 53.9623 88.1935 51.6325 88.1779ZM87.1936 13.2738C85.1099 13.2567 83.0563 13.7733 81.226 14.7749L8.00604 57.2823C6.49141 58.1639 5.62464 59.2774 5.62464 60.336C5.6739 60.8092 5.84552 61.2613 6.1223 61.6473C6.39908 62.0332 6.77139 62.3396 7.20238 62.536L47.1257 85.7155C49.7897 87.2623 54.4834 87.0516 57.5876 85.2451L62.8593 82.1854L130.808 42.7377C132.323 41.8594 133.192 40.7458 133.192 39.6822C133.142 39.2087 132.97 38.7565 132.693 38.3705C132.416 37.9846 132.043 37.6783 131.611 37.4822L91.6929 14.3069C90.3051 13.5828 88.7565 13.2266 87.1936 13.2721V13.2738Z" fill="#005BEA"/>
<path d="M63.2136 83.5148C63.0895 83.5147 62.9677 83.4818 62.8603 83.4192L12.5676 54.2192C12.4851 54.1735 12.4126 54.1116 12.3541 54.0373C12.2956 53.963 12.2524 53.8777 12.2271 53.7864C12.2019 53.6952 12.195 53.5997 12.2068 53.5057C12.2186 53.4117 12.249 53.3211 12.2962 53.239C12.3433 53.1569 12.4062 53.0851 12.4813 53.0278C12.5563 52.9705 12.642 52.9289 12.7332 52.9053C12.8245 52.8817 12.9195 52.8766 13.0127 52.8904C13.106 52.9042 13.1955 52.9365 13.2762 52.9855L63.5687 82.1829C63.7038 82.2614 63.8094 82.3825 63.869 82.5275C63.9286 82.6724 63.9389 82.8331 63.8985 82.9846C63.858 83.1361 63.769 83.2699 63.6452 83.3653C63.5213 83.4607 63.3696 83.5124 63.2136 83.5122V83.5148Z" fill="#005BEA"/>
<path d="M37.2624 74.8349C37.138 74.8349 37.0157 74.802 36.9081 74.7393L27.5225 69.2909C27.3597 69.1964 27.2408 69.0407 27.1921 68.8582C27.1435 68.6756 27.169 68.4811 27.2629 68.3174C27.3569 68.1537 27.5116 68.0342 27.6932 67.9853C27.8747 67.9363 28.0682 67.9619 28.231 68.0563L37.6166 73.5047C37.7521 73.583 37.8581 73.7042 37.918 73.8493C37.9779 73.9944 37.9884 74.1554 37.9479 74.3071C37.9074 74.4589 37.8181 74.5929 37.694 74.6884C37.5699 74.7838 37.4186 74.8353 37.2624 74.8349Z" fill="white"/>
<path d="M51.6364 98.1513C49.8214 98.1981 48.0249 97.775 46.4193 96.9227L6.49528 73.7423C5.84136 73.4309 5.2835 72.9472 4.88096 72.3427C4.47843 71.7381 4.2462 71.0352 4.20898 70.3086V60.3341C4.20898 60.1452 4.2836 59.964 4.41647 59.8304C4.54935 59.6968 4.72962 59.6217 4.91753 59.6217C5.10544 59.6217 5.28561 59.6968 5.41849 59.8304C5.55136 59.964 5.62598 60.1452 5.62598 60.3341V70.3094C5.67081 70.7839 5.84054 71.2379 6.11768 71.6245C6.39483 72.0112 6.76942 72.3167 7.2029 72.5095L47.127 95.6898C49.7894 97.2357 54.483 97.0276 57.5897 95.2244L130.811 52.7129C132.325 51.8329 133.194 50.7202 133.194 49.6574V39.6812C133.194 39.4923 133.269 39.3111 133.402 39.1774C133.535 39.0438 133.715 38.9688 133.903 38.9688C134.091 38.9688 134.271 39.0438 134.404 39.1774C134.537 39.3111 134.611 39.4923 134.611 39.6812V49.6557C134.611 51.2405 133.485 52.8042 131.519 53.9449L58.2983 96.4564C56.2579 97.584 53.9645 98.1674 51.6364 98.1513Z" fill="#005BEA"/>
<path d="M62.7232 72.1111C62.5988 72.1109 62.4767 72.0779 62.3689 72.0154L29.5864 52.9821C29.4788 52.9195 29.3894 52.8296 29.3272 52.7213C29.2651 52.613 29.2324 52.4902 29.2324 52.3652C29.2324 52.2402 29.2651 52.1174 29.3272 52.0091C29.3894 51.9008 29.4788 51.8109 29.5864 51.7484L51.2532 39.1661C51.3609 39.1034 51.4831 39.0703 51.6075 39.0703C51.7319 39.0703 51.854 39.1034 51.9617 39.1661L84.7486 58.1986C84.8562 58.2611 84.9455 58.3511 85.0076 58.4593C85.0698 58.5676 85.1025 58.6904 85.1025 58.8154C85.1025 58.9404 85.0698 59.0633 85.0076 59.1715C84.9455 59.2798 84.8562 59.3697 84.7486 59.4323L63.0817 72.0146C62.9729 72.0782 62.8491 72.1115 62.7232 72.1111ZM31.3534 52.3652L62.7232 70.5753L82.973 58.8137L51.6033 40.6028L31.3534 52.3652Z" fill="#005BEA"/>
<path d="M92.7373 53.8115C91.905 53.8318 91.0816 53.6366 90.3459 53.2445L61.9154 36.7386C61.5771 36.5725 61.2899 36.317 61.0847 35.9996C60.8794 35.6822 60.7638 35.3147 60.75 34.9363C60.7888 34.4756 60.9479 34.0334 61.2114 33.6545C61.4749 33.2756 61.8333 32.9734 62.2503 32.7786C63.1727 32.2717 64.2083 32.0096 65.2594 32.0171C66.092 31.9968 66.9158 32.192 67.6517 32.584L96.0805 49.0941C96.4185 49.2585 96.7057 49.5121 96.9115 49.8279C97.1172 50.1437 97.2337 50.5099 97.2485 50.8872C97.2102 51.3488 97.0511 51.792 96.7873 52.1717C96.5234 52.5515 96.1643 52.8542 95.7464 53.0491C94.824 53.5559 93.7884 53.8183 92.7373 53.8115ZM65.2602 33.4437C64.458 33.4343 63.6666 33.6303 62.9605 34.0131C62.3765 34.3516 62.1678 34.7137 62.1678 34.9371C62.1678 35.2003 62.4548 35.4067 62.6248 35.5057L91.0561 52.0125C91.5764 52.2789 92.1556 52.4077 92.7391 52.3865C93.5415 52.3957 94.3331 52.1998 95.0396 51.8171C95.6287 51.4786 95.834 51.1148 95.834 50.8914C95.834 50.6316 95.5479 50.4285 95.3771 50.3304L66.9432 33.8177C66.4229 33.5511 65.8437 33.4224 65.2602 33.4437Z" fill="#005BEA"/>
<path d="M102.427 48.1902C101.594 48.2143 100.769 48.0189 100.035 47.6233L71.6046 31.1139C71.2657 30.9483 70.9781 30.6931 70.7725 30.3756C70.5669 30.0581 70.4511 29.6903 70.4375 29.3116C70.4772 28.8511 70.6371 28.4094 70.9012 28.0311C71.1652 27.6528 71.524 27.3514 71.9412 27.1573C72.8631 26.6509 73.8981 26.3888 74.9486 26.3958C75.7781 26.3769 76.5987 26.5715 77.3324 26.961L105.774 43.4729C106.112 43.6385 106.398 43.8932 106.603 44.2099C106.808 44.5266 106.924 44.8933 106.938 45.2709C106.898 45.7318 106.738 46.174 106.474 46.5528C106.211 46.9317 105.852 47.2338 105.435 47.4286C104.513 47.9367 103.478 48.1989 102.427 48.1902ZM74.9495 27.8224C74.1466 27.8146 73.3549 28.0123 72.6489 28.3969C72.0599 28.7354 71.8545 29.095 71.8545 29.3176C71.8545 29.5799 72.1415 29.7855 72.3131 29.8845L100.746 46.3912C101.266 46.6578 101.846 46.7865 102.429 46.7652C103.229 46.7752 104.019 46.5795 104.723 46.1966C105.312 45.8582 105.519 45.4952 105.52 45.2718C105.52 45.012 105.235 44.8064 105.064 44.7083L76.6282 28.1981C76.1095 27.9309 75.532 27.8002 74.9495 27.8182V27.8224Z" fill="#005BEA"/>
<path d="M112.109 42.5601C111.278 42.5805 110.455 42.3858 109.72 41.9948L81.2848 25.4889C80.9467 25.3229 80.6598 25.0676 80.4548 24.7503C80.2498 24.4329 80.1345 24.0656 80.1211 23.6874C80.1604 23.2274 80.3197 22.786 80.583 22.4077C80.8463 22.0295 81.2042 21.7277 81.6206 21.5331C82.5399 21.0231 83.5747 20.7608 84.6245 20.7716C85.4593 20.7469 86.2859 20.9427 87.0219 21.3394L115.451 37.8436C115.789 38.0086 116.077 38.263 116.282 38.5796C116.488 38.8961 116.604 39.263 116.619 39.6408C116.58 40.1018 116.42 40.5442 116.156 40.9231C115.892 41.3021 115.533 41.6041 115.116 41.7985C114.194 42.3049 113.16 42.567 112.109 42.5601ZM84.6271 22.1974C83.8262 22.1885 83.0362 22.3848 82.3316 22.7677C81.7484 23.1062 81.5407 23.4649 81.5407 23.6892C81.5407 23.9515 81.8267 24.1562 81.9967 24.2561L110.428 40.7628C110.948 41.0294 111.527 41.1582 112.111 41.1368C112.913 41.1463 113.705 40.9506 114.412 40.5682C115.001 40.2298 115.206 39.8685 115.206 39.6451C115.206 39.3853 114.918 39.1797 114.747 39.0807L86.3151 22.5739C85.7934 22.3061 85.2125 22.1765 84.6271 22.1974Z" fill="#005BEA"/>
<path d="M84.3924 59.5306C84.3643 59.5305 84.3362 59.5288 84.3083 59.5255L29.8539 53.0753C29.6687 53.0511 29.5005 52.9545 29.3858 52.8064C29.2711 52.6582 29.2192 52.4705 29.2413 52.2841C29.2635 52.0977 29.358 51.9276 29.5042 51.8108C29.6504 51.6941 29.8365 51.64 30.0221 51.6605L84.4757 58.1107C84.655 58.1324 84.8193 58.222 84.9351 58.3614C85.0508 58.5007 85.1092 58.6793 85.0985 58.8605C85.0878 59.0418 85.0086 59.212 84.8773 59.3366C84.7459 59.4611 84.573 59.5305 84.3924 59.5306Z" fill="#005BEA"/>
<path d="M62.7222 72.1114C62.5756 72.1114 62.4327 72.0656 62.313 71.9805C62.1934 71.8953 62.1029 71.7749 62.0542 71.6359L50.935 40.0202C50.904 39.932 50.8906 39.8385 50.8955 39.745C50.9005 39.6516 50.9237 39.56 50.9638 39.4756C51.004 39.3912 51.0602 39.3155 51.1294 39.253C51.1986 39.1904 51.2794 39.1422 51.3671 39.111C51.4548 39.0798 51.5478 39.0664 51.6407 39.0713C51.7337 39.0763 51.8247 39.0996 51.9086 39.14C51.9926 39.1803 52.0679 39.2369 52.1301 39.3065C52.1923 39.376 52.2402 39.4572 52.2712 39.5455L63.3903 71.1612C63.4282 71.2687 63.4399 71.3837 63.4243 71.4967C63.4088 71.6096 63.3664 71.7172 63.301 71.8103C63.2355 71.9034 63.1488 71.9793 63.0481 72.0317C62.9474 72.0841 62.8356 72.1114 62.7222 72.1114Z" fill="#005BEA"/>
</g>
<defs>
<clipPath id="clip0_9_84333">
<rect width="138" height="110" fill="white"/>
</clipPath>
</defs>
</svg>

<svg xmlns="http://www.w3.org/2000/svg" width="138" height="110" fill="none" viewBox="0 0 138 110"><g clip-path="url(#a)"><path fill="#fff" d="M131.966 36.868a3.343 3.343 0 0 1 1.935 2.817c0 1.277-.925 2.623-2.734 3.671L63.219 82.805 12.926 53.607l67.949-39.449c3.306-1.919 8.308-2.128 11.176-.465zm-17.203 4.315c1.389-.807 1.54-2.023.337-2.72L86.668 21.955a4.1 4.1 0 0 0-2.04-.47 5.4 5.4 0 0 0-2.65.665c-1.384.803-1.535 2.023-.337 2.722l28.432 16.506a4.1 4.1 0 0 0 2.036.47c.926.01 1.84-.219 2.654-.663zm-9.689 5.624c1.389-.807 1.54-2.023.337-2.722L76.975 27.574a4.14 4.14 0 0 0-2.032-.47 5.43 5.43 0 0 0-2.654.67c-1.389.802-1.54 2.023-.337 2.722l28.431 16.506a4.1 4.1 0 0 0 2.036.47 5.4 5.4 0 0 0 2.655-.665m-9.683 5.623c1.388-.807 1.54-2.03.337-2.72L67.296 33.197a4.1 4.1 0 0 0-2.035-.47 5.4 5.4 0 0 0-2.655.665c-1.39.807-1.535 2.03-.337 2.726l28.432 16.506a4.1 4.1 0 0 0 2.035.47c.927.01 1.84-.217 2.655-.661zM62.723 71.397 84.39 58.815l-32.787-19.03-21.667 12.582z"/><path fill="#fff" d="M115.098 38.464c1.204.698 1.053 1.914-.337 2.72a5.4 5.4 0 0 1-2.654.666 4.1 4.1 0 0 1-2.036-.47L81.64 24.872c-1.2-.698-1.049-1.919.336-2.722a5.4 5.4 0 0 1 2.65-.665 4.1 4.1 0 0 1 2.04.47zM105.415 44.088c1.2.698 1.049 1.914-.336 2.722a5.4 5.4 0 0 1-2.65.666 4.1 4.1 0 0 1-2.036-.47L71.962 30.498c-1.205-.698-1.054-1.919.336-2.722a5.43 5.43 0 0 1 2.655-.67 4.14 4.14 0 0 1 2.032.47z"/><path fill="#1b69ff" d="M95.727 49.713c1.205.694 1.053 1.914-.337 2.722a5.4 5.4 0 0 1-2.655.665 4.1 4.1 0 0 1-2.035-.47L62.269 36.124c-1.2-.698-1.054-1.92.336-2.727a5.4 5.4 0 0 1 2.655-.665 4.1 4.1 0 0 1 2.035.47z"/><path fill="#cee7fd" d="m63.215 82.808-5.272 3.058c-3.306 1.924-8.309 2.133-11.171.47L6.848 63.157a3.3 3.3 0 0 1-1.355-1.14 3.35 3.35 0 0 1-.58-1.676c0-1.27.925-2.618 2.734-3.672l5.272-3.059z"/><path fill="#005bea" d="M51.633 88.178a10.54 10.54 0 0 1-5.218-1.229L6.492 63.77a4 4 0 0 1-1.613-1.4 4.05 4.05 0 0 1-.673-2.033c0-1.58 1.126-3.144 3.09-4.287l73.22-42.508c3.555-2.063 8.775-2.268 11.885-.466l39.919 23.175a4.03 4.03 0 0 1 2.289 3.433c0 1.587-1.129 3.15-3.092 4.29L63.57 83.417l-5.272 3.06a13.56 13.56 0 0 1-6.666 1.7m35.56-74.904a12.2 12.2 0 0 0-5.967 1.5L8.006 57.283c-1.515.882-2.381 1.995-2.381 3.054a2.715 2.715 0 0 0 1.578 2.2l39.923 23.18c2.664 1.546 7.357 1.336 10.462-.47l5.271-3.06 67.949-39.448c1.515-.879 2.384-1.992 2.384-3.056a2.74 2.74 0 0 0-.499-1.312 2.7 2.7 0 0 0-1.082-.888L91.693 14.307a9.15 9.15 0 0 0-4.5-1.035z"/><path fill="#005bea" d="M63.214 83.515a.7.7 0 0 1-.354-.096l-50.292-29.2a.71.71 0 0 1-.361-.713.713.713 0 0 1 .806-.616.7.7 0 0 1 .263.096L63.57 82.183a.71.71 0 0 1 .33.802.71.71 0 0 1-.685.527z"/><path fill="#fff" d="M37.262 74.835a.7.7 0 0 1-.354-.096l-9.385-5.448a.713.713 0 0 1 .708-1.235l9.386 5.449a.71.71 0 0 1 .33.802.71.71 0 0 1-.685.528"/><path fill="#005bea" d="M51.636 98.151a10.55 10.55 0 0 1-5.217-1.228L6.495 73.743a4 4 0 0 1-1.614-1.4 4.04 4.04 0 0 1-.672-2.034v-9.975a.714.714 0 0 1 .709-.712.707.707 0 0 1 .708.712v9.975c.045.475.215.929.492 1.316.277.386.651.692 1.085.885l39.924 23.18c2.662 1.546 7.356 1.338 10.463-.466l73.221-42.511c1.514-.88 2.383-1.993 2.383-3.056v-9.976a.715.715 0 0 1 .709-.712.707.707 0 0 1 .708.712v9.975c0 1.584-1.126 3.148-3.092 4.289l-73.22 42.511a13.6 13.6 0 0 1-6.663 1.695"/><path fill="#005bea" d="M62.723 72.111a.7.7 0 0 1-.354-.096L29.586 52.982a.71.71 0 0 1-.259-.973.7.7 0 0 1 .26-.26l21.666-12.583a.7.7 0 0 1 .709 0L84.749 58.2a.71.71 0 0 1 .354.616.72.72 0 0 1-.354.617L63.082 72.015a.7.7 0 0 1-.359.096m-31.37-19.746 31.37 18.21 20.25-11.761-31.37-18.211zM92.737 53.812a4.83 4.83 0 0 1-2.391-.567l-28.43-16.506a2.099 2.099 0 0 1-1.165-1.802 2.63 2.63 0 0 1 1.5-2.158 6.16 6.16 0 0 1 3.008-.762 4.84 4.84 0 0 1 2.393.567l28.429 16.51a2.08 2.08 0 0 1 1.168 1.793 2.63 2.63 0 0 1-.462 1.285c-.264.38-.623.682-1.04.877a6.17 6.17 0 0 1-3.01.763M65.26 33.444a4.7 4.7 0 0 0-2.3.57c-.584.338-.792.7-.792.923 0 .263.287.47.457.569l28.431 16.507c.52.266 1.1.395 1.683.373a4.7 4.7 0 0 0 2.3-.569c.59-.338.795-.702.795-.926 0-.26-.286-.462-.457-.56L66.943 33.817a3.4 3.4 0 0 0-1.683-.374M102.427 48.19a4.75 4.75 0 0 1-2.392-.567l-28.43-16.51a2.096 2.096 0 0 1-1.167-1.802 2.63 2.63 0 0 1 1.503-2.154 6.16 6.16 0 0 1 3.008-.761c.83-.02 1.65.175 2.383.565l28.442 16.512a2.096 2.096 0 0 1 1.164 1.798c-.04.46-.2.903-.464 1.282a2.6 2.6 0 0 1-1.039.876 6.1 6.1 0 0 1-3.008.761M74.949 27.822a4.7 4.7 0 0 0-2.3.575c-.59.338-.794.698-.794.92 0 .263.286.468.458.567l28.433 16.507c.52.267 1.1.395 1.683.374.8.01 1.59-.185 2.294-.568.589-.339.796-.702.797-.925 0-.26-.285-.466-.456-.564l-28.436-16.51a3.43 3.43 0 0 0-1.678-.38zM112.109 42.56a4.84 4.84 0 0 1-2.389-.565L81.285 25.489a2.08 2.08 0 0 1-1.164-1.802c.04-.46.199-.901.462-1.28.263-.378.621-.68 1.038-.874a6.06 6.06 0 0 1 3.004-.761 4.76 4.76 0 0 1 2.397.567l28.429 16.505a2.098 2.098 0 0 1 1.168 1.797 2.63 2.63 0 0 1-1.503 2.157 6.16 6.16 0 0 1-3.007.762M84.627 22.197c-.8-.008-1.59.188-2.295.57-.584.34-.791.698-.791.922 0 .262.286.467.456.567l28.431 16.507c.52.266 1.099.395 1.683.374a4.7 4.7 0 0 0 2.301-.569c.589-.338.794-.7.794-.923 0-.26-.288-.465-.459-.564L86.315 22.574a3.4 3.4 0 0 0-1.688-.377"/><path fill="#005bea" d="M84.392 59.53a1 1 0 0 1-.084-.005l-54.454-6.45a.71.71 0 0 1-.613-.79.714.714 0 0 1 .781-.624l54.454 6.45a.71.71 0 0 1 .623.75.714.714 0 0 1-.707.67"/><path fill="#005bea" d="M62.722 72.111a.71.71 0 0 1-.668-.475L50.935 40.02a.717.717 0 0 1 .432-.909.705.705 0 0 1 .904.434l11.12 31.616a.715.715 0 0 1-.669.95"/></g><defs><clipPath id="a"><path fill="#fff" d="M0 0h138v110H0z"/></clipPath></defs></svg>
